X: 11
T: Cambridge Hornpipe
C: Traditional
R: hornpipe, reel
N: Suggested tune for Domino Five
B: RSCDS "A Second Book of Graded Scottish Country Dances" (Graded 2) p.23
Z: 2011 John Chambers <jc:trillian.mit.edu>
M: 4/4
L: 1/8
K: A
E2 |:\
"A"A2AG "E7"Aceg | "A"a2ag "C#/A"aece | "D/Bm"fdBA "E7"GABc | "Bm"dB"A"cA "G#/E"BEGB |
"A"A2AG "E7"Aceg | "A"a2ag "C#/A"aece | "D/Bm"fdBA "E7"GABG | "A"A2c2 "A"A2"E7"EG :|2 "A"A2c2 "A"A2"E7"cd ||
|: "A"e2a2 "C#/A"ecAc | "D/Bm"B2b2 "Bm"Bcde | "E7"gbeg "G#/E7"begb | "A"ac'ea "E/A"c'eac' |
"C#/A"e'2c'2 "A7"a2e2 | "D"fadf "C#/A"ecAc | "Bm"B2gf "E7"edcB |1 "A"Aaec "A"A2cd :|2 "A"Aaec "A"A2 |]
